src/asset/16px/eye-closed.svg

<svg width="16" height="16" viewBox="0 0 16 16" fill="none" xmlns="http://www.w3.org/2000/svg">
<path fill-rule="evenodd" clip-rule="evenodd" d="M3.96061 7.72209C3.8086 7.19623 3.26107 6.88963 2.73237 7.03649C2.20023 7.18431 1.88868 7.73552 2.03649 8.26765L2.03684 8.2689L2.03721 8.27022L2.03801 8.27308L2.03989 8.27965L2.04475 8.29612C2.04848 8.30857 2.05324 8.32392 2.05909 8.34199C2.0708 8.37811 2.08695 8.42519 2.10824 8.48167C2.15075 8.59445 2.21417 8.74573 2.30422 8.92256C2.48387 9.27533 2.77332 9.73711 3.22051 10.1971C4.13707 11.1398 5.6453 12 8.00001 12C10.3547 12 11.8629 11.1398 12.7795 10.1971C13.2267 9.73711 13.5161 9.27533 13.6958 8.92256C13.7859 8.74573 13.8493 8.59445 13.8918 8.48167C13.9131 8.42519 13.9292 8.37811 13.9409 8.34199C13.9468 8.32392 13.9515 8.30857 13.9553 8.29612L13.9601 8.27965L13.962 8.27308L13.9628 8.27022L13.9632 8.2689L13.9635 8.26765C14.1113 7.73552 13.7998 7.18431 13.2677 7.03649C12.739 6.88963 12.1914 7.19623 12.0394 7.72209L12.0397 7.72111L12.0387 7.72472L12.0377 7.72803L12.0371 7.73007L12.0368 7.73118C12.0377 7.72815 12.0385 7.72512 12.0394 7.72209L12.0387 7.72472C12.0361 7.73255 12.03 7.75061 12.0203 7.77616C12.001 7.82745 11.9668 7.91054 11.9136 8.01496C11.8068 8.22469 11.6275 8.5129 11.3455 8.80293C10.8037 9.36019 9.81196 10 8.00001 10C6.18805 10 5.19628 9.36019 4.6545 8.80293C4.37253 8.5129 4.19323 8.22469 4.08642 8.01496C4.03325 7.91054 3.999 7.82745 3.97967 7.77617C3.97004 7.75061 3.96421 7.73324 3.96168 7.72541L3.96061 7.72209Z" fill="#808080"/>
<path fill-rule="evenodd" clip-rule="evenodd" d="M8.00001 10C8.55229 10 9.00001 10.4477 9.00001 11V12C9.00001 12.5523 8.55229 13 8.00001 13C7.44772 13 7.00001 12.5523 7.00001 12V11C7.00001 10.4477 7.44772 10 8.00001 10Z" fill="#808080"/>
<path fill-rule="evenodd" clip-rule="evenodd" d="M10.6264 9.38086C11.0788 9.06408 11.7023 9.17403 12.0191 9.62643L12.5927 10.4456C12.9095 10.898 12.7995 11.5215 12.3471 11.8383C11.8947 12.1551 11.2712 12.0451 10.9544 11.5927L10.3808 10.7736C10.064 10.3212 10.174 9.69763 10.6264 9.38086Z" fill="#808080"/>
<path fill-rule="evenodd" clip-rule="evenodd" d="M5.37363 9.38086C4.92123 9.06408 4.29768 9.17403 3.98091 9.62643L3.40733 10.4456C3.09055 10.898 3.2005 11.5215 3.65291 11.8383C4.10531 12.1551 4.72886 12.0451 5.04563 11.5927L5.61921 10.7736C5.93599 10.3212 5.82604 9.69763 5.37363 9.38086Z" fill="#808080"/>
</svg>

<svg width="16" height="16" fill="none" xmlns="http://www.w3.org/2000/svg"><path fill-rule="evenodd" clip-rule="evenodd" d="M3.96 7.722a1 1 0 00-1.924.546l.001.002.001.003.002.007.005.016a2.202 2.202 0 00.063.186c.043.112.106.264.196.44.18.353.47.815.917 1.275C4.137 11.14 5.645 12 8 12s3.863-.86 4.78-1.803a5.27 5.27 0 00.916-1.274 4.378 4.378 0 00.26-.627l.004-.016.002-.007V8.27l.001-.001v-.001a1 1 0 00-1.924-.546v.003l-.001.003v.002l-.001.001.002-.009v.003a2.381 2.381 0 01-.125.29c-.107.21-.287.498-.569.788C10.804 9.36 9.813 10 8 10c-1.812 0-2.804-.64-3.346-1.197a3.27 3.27 0 01-.568-.788 2.4 2.4 0 01-.124-.29l-.001-.003z" fill="gray"/><path fill-rule="evenodd" clip-rule="evenodd" d="M8 10a1 1 0 011 1v1a1 1 0 11-2 0v-1a1 1 0 011-1zM10.626 9.38a1 1 0 011.393.246l.574.82a1 1 0 11-1.639 1.147l-.573-.82a1 1 0 01.245-1.392zM5.374 9.38a1 1 0 00-1.393.246l-.574.82a1 1 0 101.639 1.147l.573-.82a1 1 0 00-.245-1.392z" fill="gray"/></svg>
